img/stars.svg

<svg fill="none" height="27" viewBox="0 0 119 27" width="119" xmlns="http://www.w3.org/2000/svg" xmlns:xlink="http://www.w3.org/1999/xlink"><filter id="a" color-interpolation-filters="sRGB" filterUnits="userSpaceOnUse" height="26.9871" width="28.3096" x=".329834" y="0"><feFlood flood-opacity="0" result="BackgroundImageFix"/><feColorMatrix in="SourceAlpha" result="hardAlpha" type="matrix" values="0 0 0 0 0 0 0 0 0 0 0 0 0 0 0 0 0 0 127 0"/><feOffset/><feGaussianBlur stdDeviation="2.5"/><feComposite in2="hardAlpha" operator="out"/><feColorMatrix type="matrix" values="0 0 0 0 0.94902 0 0 0 0 0.815686 0 0 0 0 0.388235 0 0 0 0.36 0"/><feBlend in2="BackgroundImageFix" mode="normal" result="effect1_dropShadow_4_143"/><feBlend in="SourceGraphic" in2="effect1_dropShadow_4_143" mode="normal" result="shape"/></filter><filter id="b" color-interpolation-filters="sRGB" filterUnits="userSpaceOnUse" height="26.9871" width="28.3096" x="22.7085" y="0"><feFlood flood-opacity="0" result="BackgroundImageFix"/><feColorMatrix in="SourceAlpha" result="hardAlpha" type="matrix" values="0 0 0 0 0 0 0 0 0 0 0 0 0 0 0 0 0 0 127 0"/><feOffset/><feGaussianBlur stdDeviation="2.5"/><feComposite in2="hardAlpha" operator="out"/><feColorMatrix type="matrix" values="0 0 0 0 0.94902 0 0 0 0 0.815686 0 0 0 0 0.388235 0 0 0 0.36 0"/><feBlend in2="BackgroundImageFix" mode="normal" result="effect1_dropShadow_4_143"/><feBlend in="SourceGraphic" in2="effect1_dropShadow_4_143" mode="normal" result="shape"/></filter><filter id="c" color-interpolation-filters="sRGB" filterUnits="userSpaceOnUse" height="26.9871" width="28.3096" x="45.0867" y="0"><feFlood flood-opacity="0" result="BackgroundImageFix"/><feColorMatrix in="SourceAlpha" result="hardAlpha" type="matrix" values="0 0 0 0 0 0 0 0 0 0 0 0 0 0 0 0 0 0 127 0"/><feOffset/><feGaussianBlur stdDeviation="2.5"/><feComposite in2="hardAlpha" operator="out"/><feColorMatrix type="matrix" values="0 0 0 0 0.94902 0 0 0 0 0.815686 0 0 0 0 0.388235 0 0 0 0.36 0"/><feBlend in2="BackgroundImageFix" mode="normal" result="effect1_dropShadow_4_143"/><feBlend in="SourceGraphic" in2="effect1_dropShadow_4_143" mode="normal" result="shape"/></filter><filter id="d" color-interpolation-filters="sRGB" filterUnits="userSpaceOnUse" height="26.9871" width="28.3096" x="67.4651" y="0"><feFlood flood-opacity="0" result="BackgroundImageFix"/><feColorMatrix in="SourceAlpha" result="hardAlpha" type="matrix" values="0 0 0 0 0 0 0 0 0 0 0 0 0 0 0 0 0 0 127 0"/><feOffset/><feGaussianBlur stdDeviation="2.5"/><feComposite in2="hardAlpha" operator="out"/><feColorMatrix type="matrix" values="0 0 0 0 0.94902 0 0 0 0 0.815686 0 0 0 0 0.388235 0 0 0 0.36 0"/><feBlend in2="BackgroundImageFix" mode="normal" result="effect1_dropShadow_4_143"/><feBlend in="SourceGraphic" in2="effect1_dropShadow_4_143" mode="normal" result="shape"/></filter><filter id="e" color-interpolation-filters="sRGB" filterUnits="userSpaceOnUse" height="26.9871" width="28.3096" x="89.8425" y="0"><feFlood flood-opacity="0" result="BackgroundImageFix"/><feColorMatrix in="SourceAlpha" result="hardAlpha" type="matrix" values="0 0 0 0 0 0 0 0 0 0 0 0 0 0 0 0 0 0 127 0"/><feOffset/><feGaussianBlur stdDeviation="2.5"/><feComposite in2="hardAlpha" operator="out"/><feColorMatrix type="matrix" values="0 0 0 0 0.94902 0 0 0 0 0.815686 0 0 0 0 0.388235 0 0 0 0.36 0"/><feBlend in2="BackgroundImageFix" mode="normal" result="effect1_dropShadow_4_143"/><feBlend in="SourceGraphic" in2="effect1_dropShadow_4_143" mode="normal" result="shape"/></filter><linearGradient id="f"><stop offset="0" stop-color="#f2d063"/><stop offset="1" stop-color="#f8ae2e"/></linearGradient><linearGradient id="g" gradientUnits="userSpaceOnUse" x1="9.39848" x2="18.7123" xlink:href="#f" y1="7.05555" y2="21.1523"/><linearGradient id="h" gradientUnits="userSpaceOnUse" x1="31.7771" x2="41.091" xlink:href="#f" y1="7.05555" y2="21.1523"/><linearGradient id="i" gradientUnits="userSpaceOnUse" x1="54.1553" x2="63.4692" xlink:href="#f" y1="7.05555" y2="21.1523"/><linearGradient id="j" gradientUnits="userSpaceOnUse" x1="76.5337" x2="85.8476" xlink:href="#f" y1="7.05555" y2="21.1523"/><linearGradient id="k" gradientUnits="userSpaceOnUse" x1="98.9112" x2="108.225" xlink:href="#f" y1="7.05555" y2="21.1523"/><g filter="url(#a)"><path d="m23.6232 11.4651c-.0387-.1155-.1413-.1998-.2648-.2173l-5.9287-.8389-2.6514-5.23084c-.055-.10913-.1691-.17806-.2936-.17806-.1246 0-.2389.06893-.2937.17806l-2.6517 5.23114-5.92867.8389c-.12356.0176-.22581.1015-.26481.2173-.03834.1152-.00655.2422.08292.3268l4.29036 4.0718-1.01303 5.7496c-.02097.1197.0295.2406.13011.3121.10127.0721.23532.0814.34511.0243l5.30341-2.7143 5.3027 2.7143c.0478.0245.1006.0367.1527.0367.0679 0 .1354-.0205.1927-.061.101-.0715.1514-.1924.1301-.3121l-1.0127-5.7493 4.2904-4.0721c.0891-.0852.1213-.2119.0826-.3271z" fill="url(#g)"/></g><g filter="url(#b)"><path d="m46.0019 11.4651c-.0387-.1155-.1413-.1998-.2649-.2173l-5.9287-.8389-2.6513-5.23084c-.0551-.10913-.1691-.17806-.2937-.17806-.1245 0-.2389.06893-.2936.17806l-2.6517 5.23114-5.9287.8389c-.1236.0176-.2258.1015-.2648.2173-.0384.1152-.0066.2422.0829.3268l4.2904 4.0718-1.0131 5.7496c-.0209.1197.0295.2406.1301.3121.1013.0721.2354.0814.3451.0243l5.3034-2.7143 5.3028 2.7143c.0478.0245.1006.0367.1527.0367.0678 0 .1353-.0205.1927-.061.1009-.0715.1514-.1924.1301-.3121l-1.0127-5.7493 4.2904-4.0721c.0891-.0852.1212-.2119.0826-.3271z" fill="url(#h)"/></g><g filter="url(#c)"><path d="m68.38 11.4651c-.0386-.1155-.1412-.1998-.2648-.2173l-5.9287-.8389-2.6513-5.23084c-.0551-.10913-.1692-.17806-.2937-.17806s-.2389.06893-.2936.17806l-2.6517 5.23114-5.9287.8389c-.1236.0176-.2258.1015-.2648.2173-.0384.1152-.0066.2422.0829.3268l4.2903 4.0718-1.013 5.7496c-.021.1197.0295.2406.1301.3121.1013.0721.2353.0814.3451.0243l5.3034-2.7143 5.3027 2.7143c.0479.0245.1006.0367.1528.0367.0678 0 .1353-.0205.1927-.061.1009-.0715.1514-.1924.1301-.3121l-1.0127-5.7493 4.2903-4.0721c.0892-.0852.1213-.2119.0826-.3271z" fill="url(#i)"/></g><g filter="url(#d)"><path d="m90.7584 11.4651c-.0386-.1155-.1412-.1998-.2648-.2173l-5.9287-.8389-2.6513-5.23084c-.0551-.10913-.1691-.17806-.2937-.17806-.1245 0-.2389.06893-.2936.17806l-2.6517 5.23114-5.9287.8389c-.1236.0176-.2258.1015-.2648.2173-.0384.1152-.0066.2422.0829.3268l4.2904 4.0718-1.0131 5.7496c-.0209.1197.0295.2406.1301.3121.1013.0721.2353.0814.3451.0243l5.3034-2.7143 5.3028 2.7143c.0478.0245.1006.0367.1527.0367.0678 0 .1353-.0205.1927-.061.1009-.0715.1514-.1924.1301-.3121l-1.0127-5.7493 4.2904-4.0721c.0891-.0852.1212-.2119.0825-.3271z" fill="url(#j)"/></g><g filter="url(#e)"><path d="m113.136 11.4651c-.039-.1155-.141-.1998-.265-.2173l-5.929-.8389-2.651-5.23084c-.055-.10913-.169-.17806-.294-.17806-.124 0-.239.06893-.293.17806l-2.652 5.23114-5.9287.8389c-.1235.0176-.2258.1015-.2648.2173-.0383.1152-.0065.2422.0829.3268l4.2904 4.0718-1.013 5.7496c-.021.1197.0295.2406.1301.3121.1012.0721.2353.0814.3451.0243l5.303-2.7143 5.303 2.7143c.048.0245.101.0367.153.0367.068 0 .135-.0205.193-.061.1-.0715.151-.1924.13-.3121l-1.013-5.7493 4.29-4.0721c.089-.0852.122-.2119.083-.3271z" fill="url(#k)"/></g></svg>

<svg width="119" height="27" viewBox="0 0 119 27" fill="none" xmlns="http://www.w3.org/2000/svg">
<g filter="url(#filter0_d_4_143)">
<path d="M23.6232 11.4651C23.5845 11.3496 23.4819 11.2653 23.3584 11.2478L17.4297 10.4089L14.7783 5.17806C14.7233 5.06893 14.6092 5 14.4847 5C14.3601 5 14.2458 5.06893 14.191 5.17806L11.5393 10.4092L5.61063 11.2481C5.48707 11.2657 5.38482 11.3496 5.34582 11.4654C5.30748 11.5806 5.33927 11.7076 5.42874 11.7922L9.7191 15.864L8.70607 21.6136C8.6851 21.7333 8.73557 21.8542 8.83618 21.9257C8.93745 21.9978 9.0715 22.0071 9.18129 21.95L14.4847 19.2357L19.7874 21.95C19.8352 21.9745 19.888 21.9867 19.9401 21.9867C20.008 21.9867 20.0755 21.9662 20.1328 21.9257C20.2338 21.8542 20.2842 21.7333 20.2629 21.6136L19.2502 15.8643L23.5406 11.7922C23.6297 11.707 23.6619 11.5803 23.6232 11.4651Z" fill="url(#paint0_linear_4_143)"/>
</g>
<g filter="url(#filter1_d_4_143)">
<path d="M46.0019 11.4651C45.9632 11.3496 45.8606 11.2653 45.737 11.2478L39.8083 10.4089L37.157 5.17806C37.1019 5.06893 36.9879 5 36.8633 5C36.7388 5 36.6244 5.06893 36.5697 5.17806L33.918 10.4092L27.9893 11.2481C27.8657 11.2657 27.7635 11.3496 27.7245 11.4654C27.6861 11.5806 27.7179 11.7076 27.8074 11.7922L32.0978 15.864L31.0847 21.6136C31.0638 21.7333 31.1142 21.8542 31.2148 21.9257C31.3161 21.9978 31.4502 22.0071 31.5599 21.95L36.8633 19.2357L42.1661 21.95C42.2139 21.9745 42.2667 21.9867 42.3188 21.9867C42.3866 21.9867 42.4541 21.9662 42.5115 21.9257C42.6124 21.8542 42.6629 21.7333 42.6416 21.6136L41.6289 15.8643L45.9193 11.7922C46.0084 11.707 46.0405 11.5803 46.0019 11.4651Z" fill="url(#paint1_linear_4_143)"/>
</g>
<g filter="url(#filter2_d_4_143)">
<path d="M68.38 11.4651C68.3414 11.3496 68.2388 11.2653 68.1152 11.2478L62.1865 10.4089L59.5352 5.17806C59.4801 5.06893 59.366 5 59.2415 5C59.117 5 59.0026 5.06893 58.9479 5.17806L56.2962 10.4092L50.3675 11.2481C50.2439 11.2657 50.1417 11.3496 50.1027 11.4654C50.0643 11.5806 50.0961 11.7076 50.1856 11.7922L54.4759 15.864L53.4629 21.6136C53.4419 21.7333 53.4924 21.8542 53.593 21.9257C53.6943 21.9978 53.8283 22.0071 53.9381 21.95L59.2415 19.2357L64.5442 21.95C64.5921 21.9745 64.6448 21.9867 64.697 21.9867C64.7648 21.9867 64.8323 21.9662 64.8897 21.9257C64.9906 21.8542 65.0411 21.7333 65.0198 21.6136L64.0071 15.8643L68.2974 11.7922C68.3866 11.707 68.4187 11.5803 68.38 11.4651Z" fill="url(#paint2_linear_4_143)"/>
</g>
<g filter="url(#filter3_d_4_143)">
<path d="M90.7584 11.4651C90.7198 11.3496 90.6172 11.2653 90.4936 11.2478L84.5649 10.4089L81.9136 5.17806C81.8585 5.06893 81.7445 5 81.6199 5C81.4954 5 81.381 5.06893 81.3263 5.17806L78.6746 10.4092L72.7459 11.2481C72.6223 11.2657 72.5201 11.3496 72.4811 11.4654C72.4427 11.5806 72.4745 11.7076 72.564 11.7922L76.8544 15.864L75.8413 21.6136C75.8204 21.7333 75.8708 21.8542 75.9714 21.9257C76.0727 21.9978 76.2067 22.0071 76.3165 21.95L81.6199 19.2357L86.9227 21.95C86.9705 21.9745 87.0233 21.9867 87.0754 21.9867C87.1432 21.9867 87.2107 21.9662 87.2681 21.9257C87.369 21.8542 87.4195 21.7333 87.3982 21.6136L86.3855 15.8643L90.6759 11.7922C90.765 11.707 90.7971 11.5803 90.7584 11.4651Z" fill="url(#paint3_linear_4_143)"/>
</g>
<g filter="url(#filter4_d_4_143)">
<path d="M113.136 11.4651C113.097 11.3496 112.995 11.2653 112.871 11.2478L106.942 10.4089L104.291 5.17806C104.236 5.06893 104.122 5 103.997 5C103.873 5 103.758 5.06893 103.704 5.17806L101.052 10.4092L95.1233 11.2481C94.9998 11.2657 94.8975 11.3496 94.8585 11.4654C94.8202 11.5806 94.852 11.7076 94.9414 11.7922L99.2318 15.864L98.2188 21.6136C98.1978 21.7333 98.2483 21.8542 98.3489 21.9257C98.4501 21.9978 98.5842 22.0071 98.694 21.95L103.997 19.2357L109.3 21.95C109.348 21.9745 109.401 21.9867 109.453 21.9867C109.521 21.9867 109.588 21.9662 109.646 21.9257C109.746 21.8542 109.797 21.7333 109.776 21.6136L108.763 15.8643L113.053 11.7922C113.142 11.707 113.175 11.5803 113.136 11.4651Z" fill="url(#paint4_linear_4_143)"/>
</g>
<defs>
<filter id="filter0_d_4_143" x="0.329834" y="0" width="28.3096" height="26.9871" filterUnits="userSpaceOnUse" color-interpolation-filters="sRGB">
<feFlood flood-opacity="0" result="BackgroundImageFix"/>
<feColorMatrix in="SourceAlpha" type="matrix" values="0 0 0 0 0 0 0 0 0 0 0 0 0 0 0 0 0 0 127 0" result="hardAlpha"/>
<feOffset/>
<feGaussianBlur stdDeviation="2.5"/>
<feComposite in2="hardAlpha" operator="out"/>
<feColorMatrix type="matrix" values="0 0 0 0 0.94902 0 0 0 0 0.815686 0 0 0 0 0.388235 0 0 0 0.36 0"/>
<feBlend mode="normal" in2="BackgroundImageFix" result="effect1_dropShadow_4_143"/>
<feBlend mode="normal" in="SourceGraphic" in2="effect1_dropShadow_4_143" result="shape"/>
</filter>
<filter id="filter1_d_4_143" x="22.7085" y="0" width="28.3096" height="26.9871" filterUnits="userSpaceOnUse" color-interpolation-filters="sRGB">
<feFlood flood-opacity="0" result="BackgroundImageFix"/>
<feColorMatrix in="SourceAlpha" type="matrix" values="0 0 0 0 0 0 0 0 0 0 0 0 0 0 0 0 0 0 127 0" result="hardAlpha"/>
<feOffset/>
<feGaussianBlur stdDeviation="2.5"/>
<feComposite in2="hardAlpha" operator="out"/>
<feColorMatrix type="matrix" values="0 0 0 0 0.94902 0 0 0 0 0.815686 0 0 0 0 0.388235 0 0 0 0.36 0"/>
<feBlend mode="normal" in2="BackgroundImageFix" result="effect1_dropShadow_4_143"/>
<feBlend mode="normal" in="SourceGraphic" in2="effect1_dropShadow_4_143" result="shape"/>
</filter>
<filter id="filter2_d_4_143" x="45.0867" y="0" width="28.3096" height="26.9871" filterUnits="userSpaceOnUse" color-interpolation-filters="sRGB">
<feFlood flood-opacity="0" result="BackgroundImageFix"/>
<feColorMatrix in="SourceAlpha" type="matrix" values="0 0 0 0 0 0 0 0 0 0 0 0 0 0 0 0 0 0 127 0" result="hardAlpha"/>
<feOffset/>
<feGaussianBlur stdDeviation="2.5"/>
<feComposite in2="hardAlpha" operator="out"/>
<feColorMatrix type="matrix" values="0 0 0 0 0.94902 0 0 0 0 0.815686 0 0 0 0 0.388235 0 0 0 0.36 0"/>
<feBlend mode="normal" in2="BackgroundImageFix" result="effect1_dropShadow_4_143"/>
<feBlend mode="normal" in="SourceGraphic" in2="effect1_dropShadow_4_143" result="shape"/>
</filter>
<filter id="filter3_d_4_143" x="67.4651" y="0" width="28.3096" height="26.9871" filterUnits="userSpaceOnUse" color-interpolation-filters="sRGB">
<feFlood flood-opacity="0" result="BackgroundImageFix"/>
<feColorMatrix in="SourceAlpha" type="matrix" values="0 0 0 0 0 0 0 0 0 0 0 0 0 0 0 0 0 0 127 0" result="hardAlpha"/>
<feOffset/>
<feGaussianBlur stdDeviation="2.5"/>
<feComposite in2="hardAlpha" operator="out"/>
<feColorMatrix type="matrix" values="0 0 0 0 0.94902 0 0 0 0 0.815686 0 0 0 0 0.388235 0 0 0 0.36 0"/>
<feBlend mode="normal" in2="BackgroundImageFix" result="effect1_dropShadow_4_143"/>
<feBlend mode="normal" in="SourceGraphic" in2="effect1_dropShadow_4_143" result="shape"/>
</filter>
<filter id="filter4_d_4_143" x="89.8425" y="0" width="28.3096" height="26.9871" filterUnits="userSpaceOnUse" color-interpolation-filters="sRGB">
<feFlood flood-opacity="0" result="BackgroundImageFix"/>
<feColorMatrix in="SourceAlpha" type="matrix" values="0 0 0 0 0 0 0 0 0 0 0 0 0 0 0 0 0 0 127 0" result="hardAlpha"/>
<feOffset/>
<feGaussianBlur stdDeviation="2.5"/>
<feComposite in2="hardAlpha" operator="out"/>
<feColorMatrix type="matrix" values="0 0 0 0 0.94902 0 0 0 0 0.815686 0 0 0 0 0.388235 0 0 0 0.36 0"/>
<feBlend mode="normal" in2="BackgroundImageFix" result="effect1_dropShadow_4_143"/>
<feBlend mode="normal" in="SourceGraphic" in2="effect1_dropShadow_4_143" result="shape"/>
</filter>
<linearGradient id="paint0_linear_4_143" x1="9.39848" y1="7.05555" x2="18.7123" y2="21.1523" gradientUnits="userSpaceOnUse">
<stop stop-color="#F2D063"/>
<stop offset="1" stop-color="#F8AE2E"/>
</linearGradient>
<linearGradient id="paint1_linear_4_143" x1="31.7771" y1="7.05555" x2="41.091" y2="21.1523" gradientUnits="userSpaceOnUse">
<stop stop-color="#F2D063"/>
<stop offset="1" stop-color="#F8AE2E"/>
</linearGradient>
<linearGradient id="paint2_linear_4_143" x1="54.1553" y1="7.05555" x2="63.4692" y2="21.1523" gradientUnits="userSpaceOnUse">
<stop stop-color="#F2D063"/>
<stop offset="1" stop-color="#F8AE2E"/>
</linearGradient>
<linearGradient id="paint3_linear_4_143" x1="76.5337" y1="7.05555" x2="85.8476" y2="21.1523" gradientUnits="userSpaceOnUse">
<stop stop-color="#F2D063"/>
<stop offset="1" stop-color="#F8AE2E"/>
</linearGradient>
<linearGradient id="paint4_linear_4_143" x1="98.9112" y1="7.05555" x2="108.225" y2="21.1523" gradientUnits="userSpaceOnUse">
<stop stop-color="#F2D063"/>
<stop offset="1" stop-color="#F8AE2E"/>
</linearGradient>
</defs>
</svg>
